X:25
M:6/8
L:1/8
K:G
|: dBG GBd | ecG EGc | egf ed^c | dAF D3 | G3 BGB | dBd efg | dBG cAF | G3 G3 :|

